X: 39721
T: Tettegouche, The
R: polka
M: 2/4
K: Gmajor
|:B>A GD|EG D2|EF/G/ DG|BA A2|
B>A GD|EG DG|E/F/G/B/ AF|1 G2 GA:|2 G2 G2||
|:g>f ed|c/B/A BG|EF/G/ AF|GA BG|
g>f ed|c/B/A BG|E/F/G/B/ AF|1 G2 G2:|2 G2 GA||

